X: 13404
T: Flirting With The Edge
R: polka
M: 2/4
K: Cmajor
|:ED FD|C>c AG|A/B/A/G/ FA|GE ED|
E/F/E/D/ CD|FG AB/A/|GE c>G|1 AG EC:|2 AG ce||
d>e dc|A/B/A/G/ FA|GE cG|AG ce|
d>e dc|A/B/A/G/ F2|ge dc|d>e dc|
A>d dc|A/B/A/G/ FA|GE cG|AG ce|
d>e dc|A/B/A/G/ FA|GE C>c|AG EC||

